src/pug/_include/cart.svg

<svg width="20" height="25" viewBox="0 0 20 25" fill="none">
<path d="M2.09597 6.93953C2.12795 6.4117 2.56534 6 3.09414 6H16.9059C17.4347 6 17.872 6.4117 17.904 6.93953L18.8733 22.9395C18.9082 23.5145 18.4512 24 17.8752 24H2.12483C1.54877 24 1.09183 23.5145 1.12666 22.9395L2.09597 6.93953Z" stroke="#4E5B67" stroke-width="2"/>
<path d="M14 10.8421V5C14 2.79086 12.2091 1 10 1V1C7.79086 1 6 2.79086 6 5V10.8421" stroke="#4E5B67" stroke-width="2"/>
</svg>

<svg xmlns="http://www.w3.org/2000/svg" width="20" height="25" fill="none" stroke="#4e5b67" stroke-width="2"><path d="M2.096 6.94A1 1 0 0 1 3.094 6h13.812a1 1 0 0 1 .998.94l.97 16A1 1 0 0 1 17.875 24H2.125a1 1 0 0 1-.998-1.061l.97-16z"/><path d="M14 10.842V5a4 4 0 0 0-4-4h0a4 4 0 0 0-4 4v5.842"/></svg>
